_inc/systems/logos/fba.svg

<svg xmlns="http://www.w3.org/2000/svg" viewBox="0 0 3839 458.2"><path d="M686.9 117h169.3v44.5H735.8v47.3h106.1v44.5H735.8v86.1h-48.9zm202.6 0h48.9v222.3h-48.9zm96.5 0h45.1l104.2 136.9V117h48.3v222.3H1142L1034.3 198v141.3H986zm319.2-1.6h45.1l95.3 223.9h-51.1l-20.3-49.9h-94l-20.3 49.9H1210zm51.4 130.9-29.5-72.1-29.5 72.1zM1471.9 117h48.9v177.8h110.8v44.5h-159.7zm276 0h103.2c25.4 0 45.4 7 58.1 19.7 10.2 10.2 15.2 22.5 15.2 37.8v.6c0 25.1-13.3 39.1-29.2 48 25.7 9.8 41.6 24.8 41.6 54.6v.6c0 40.6-33 61-83.2 61h-105.8V117Zm92.7 89.9c21.6 0 35.2-7 35.2-23.5v-.6c0-14.6-11.4-22.9-32.1-22.9h-48.3v47zm13 89.5c21.6 0 34.6-7.6 34.6-24.1v-.6c0-14.9-11.1-24.1-36.2-24.1h-56.5v48.9h58.1Zm112.1-52.4V117h48.9v125.8c0 36.2 18.1 54.9 48 54.9s48-18.1 48-53.4V117h48.9v125.4c0 67.3-37.8 100.4-97.5 100.4-59.8 0-96.3-33.3-96.3-98.8m235.6-127H2303c28.3 0 50.2 7.9 64.8 22.5 12.4 12.4 19.1 29.9 19.1 50.8v.6c0 35.9-19.4 58.4-47.6 68.9l54.3 79.4h-57.2l-47.6-71.1h-38.4v71.1h-48.9V117Zm98.5 108c23.8 0 37.5-12.7 37.5-31.4v-.6c0-21-14.6-31.8-38.4-31.8h-48.6V225zM2423 117h45.1l104.2 136.9V117h48.3v222.3H2579L2471.3 198v141.3H2423zm406.5-1.6h45.1l95.3 223.9h-51.1l-20.3-49.9h-94l-20.3 49.9h-49.9zm51.4 130.9-29.5-72.1-29.5 72.1zM2996.2 117h48.9v177.8h110.8v44.5h-159.7zm188.6 0h90.8c53 0 85.1 31.4 85.1 76.9v.6c0 51.4-40 78.1-89.9 78.1h-37.2v66.7h-48.9V117Zm87.7 112.1c24.5 0 38.7-14.6 38.7-33.7v-.6c0-21.9-15.2-33.7-39.7-33.7h-37.8v68zM3389 117h48.9v88h90.2v-88h48.9v222.3h-48.9v-89.2h-90.2v89.2H3389zm309.6-1.6h45.1l95.3 223.9h-51.1l-20.3-49.9h-94l-20.3 49.9h-49.9zm51.5 130.9-29.5-72.1-29.5 72.1zM433.7 0H0v58.4l352.8 124.1H554v-62.3C554 53.8 500.1 0 433.7 0m-97 193-152-53.4v218.2L117.1 382v76.2h268.6V330h-49zm16.1 120.8H554V198.7H352.8z" class="st0" style="fill:#fff"/></svg>

<?xml version="1.0" encoding="utf-8"?>
<svg version="1.1" viewBox="0 0 3839 458.2" xmlns="http://www.w3.org/2000/svg">
  <path class="st0" d="M 686.9 117 L 856.2 117 L 856.2 161.5 L 735.8 161.5 L 735.8 208.8 L 841.9 208.8 L 841.9 253.3 L 735.8 253.3 L 735.8 339.4 L 686.9 339.4 L 686.9 117 Z" style="fill: rgb(255, 255, 255);"/>
  <path class="st0" d="M 889.5 117 L 938.4 117 L 938.4 339.3 L 889.5 339.3 L 889.5 117 Z" style="fill: rgb(255, 255, 255);"/>
  <path class="st0" d="M 986 117 L 1031.1 117 L 1135.3 253.9 L 1135.3 117 L 1183.6 117 L 1183.6 339.3 L 1142 339.3 L 1034.3 198 L 1034.3 339.3 L 986 339.3 L 986 117 Z" style="fill: rgb(255, 255, 255);"/>
  <path class="st0" d="M 1305.2 115.4 L 1350.3 115.4 L 1445.6 339.3 L 1394.5 339.3 L 1374.2 289.4 L 1280.2 289.4 L 1259.9 339.3 L 1210 339.3 L 1305.2 115.4 Z M 1356.6 246.3 L 1327.1 174.2 L 1297.6 246.3 L 1356.6 246.3 Z" style="fill: rgb(255, 255, 255);"/>
  <path class="st0" d="M 1471.9 117 L 1520.8 117 L 1520.8 294.8 L 1631.6 294.8 L 1631.6 339.3 L 1471.9 339.3 L 1471.9 117 Z" style="fill: rgb(255, 255, 255);"/>
  <path class="st0" d="M 1747.9 117 L 1851.1 117 C 1876.5 117 1896.5 124 1909.2 136.7 C 1919.4 146.9 1924.4 159.2 1924.4 174.5 L 1924.4 175.1 C 1924.4 200.2 1911.1 214.2 1895.2 223.1 C 1920.9 232.9 1936.8 247.9 1936.8 277.7 L 1936.8 278.3 C 1936.8 318.9 1903.8 339.3 1853.6 339.3 L 1747.8 339.3 L 1747.8 117 Z M 1840.6 206.9 C 1862.2 206.9 1875.8 199.9 1875.8 183.4 L 1875.8 182.8 C 1875.8 168.2 1864.4 159.9 1843.7 159.9 L 1795.4 159.9 L 1795.4 206.9 L 1840.6 206.9 Z M 1853.6 296.4 C 1875.2 296.4 1888.2 288.8 1888.2 272.3 L 1888.2 271.7 C 1888.2 256.8 1877.1 247.6 1852 247.6 L 1795.5 247.6 L 1795.5 296.5 L 1853.6 296.5 Z" style="fill: rgb(255, 255, 255);"/>
  <path class="st0" d="M 1965.7 244 L 1965.7 117 L 2014.6 117 L 2014.6 242.8 C 2014.6 279 2032.7 297.7 2062.6 297.7 C 2092.5 297.7 2110.6 279.6 2110.6 244.3 L 2110.6 117 L 2159.5 117 L 2159.5 242.4 C 2159.5 309.7 2121.7 342.8 2062 342.8 C 2002.2 342.8 1965.7 309.5 1965.7 244 Z" style="fill: rgb(255, 255, 255);"/>
  <path class="st0" d="M 2201.3 117 L 2303 117 C 2331.3 117 2353.2 124.9 2367.8 139.5 C 2380.2 151.9 2386.9 169.4 2386.9 190.3 L 2386.9 190.9 C 2386.9 226.8 2367.5 249.3 2339.3 259.8 L 2393.6 339.2 L 2336.4 339.2 L 2288.8 268.1 L 2250.4 268.1 L 2250.4 339.2 L 2201.5 339.2 L 2201.5 117 Z M 2299.8 225 C 2323.6 225 2337.3 212.3 2337.3 193.6 L 2337.3 193 C 2337.3 172 2322.7 161.2 2298.9 161.2 L 2250.3 161.2 L 2250.3 225 L 2299.8 225 Z" style="fill: rgb(255, 255, 255);"/>
  <path class="st0" d="M 2423 117 L 2468.1 117 L 2572.3 253.9 L 2572.3 117 L 2620.6 117 L 2620.6 339.3 L 2579 339.3 L 2471.3 198 L 2471.3 339.3 L 2423 339.3 L 2423 117 Z" style="fill: rgb(255, 255, 255);"/>
  <path class="st0" d="M 2829.5 115.4 L 2874.6 115.4 L 2969.9 339.3 L 2918.8 339.3 L 2898.5 289.4 L 2804.5 289.4 L 2784.2 339.3 L 2734.3 339.3 L 2829.5 115.4 Z M 2880.9 246.3 L 2851.4 174.2 L 2821.9 246.3 L 2880.9 246.3 Z" style="fill: rgb(255, 255, 255);"/>
  <path class="st0" d="M 2996.2 117 L 3045.1 117 L 3045.1 294.8 L 3155.9 294.8 L 3155.9 339.3 L 2996.2 339.3 L 2996.2 117 Z" style="fill: rgb(255, 255, 255);"/>
  <path class="st0" d="M 3184.8 117 L 3275.6 117 C 3328.6 117 3360.7 148.4 3360.7 193.9 L 3360.7 194.5 C 3360.7 245.9 3320.7 272.6 3270.8 272.6 L 3233.6 272.6 L 3233.6 339.3 L 3184.7 339.3 L 3184.7 117 Z M 3272.5 229.1 C 3297 229.1 3311.2 214.5 3311.2 195.4 L 3311.2 194.8 C 3311.2 172.9 3296 161.1 3271.5 161.1 L 3233.7 161.1 L 3233.7 229.1 L 3272.5 229.1 Z" style="fill: rgb(255, 255, 255);"/>
  <path class="st0" d="M 3389 117 L 3437.9 117 L 3437.9 205 L 3528.1 205 L 3528.1 117 L 3577 117 L 3577 339.3 L 3528.1 339.3 L 3528.1 250.1 L 3437.9 250.1 L 3437.9 339.3 L 3389 339.3 L 3389 117 Z" style="fill: rgb(255, 255, 255);"/>
  <path class="st0" d="M 3698.6 115.4 L 3743.7 115.4 L 3839 339.3 L 3787.9 339.3 L 3767.6 289.4 L 3673.6 289.4 L 3653.3 339.3 L 3603.4 339.3 L 3698.6 115.4 Z M 3750.1 246.3 L 3720.6 174.2 L 3691.1 246.3 L 3750.1 246.3 Z" style="fill: rgb(255, 255, 255);"/>
  <path class="st0" d="M 433.7 0 L 0 0 L 0 58.4 L 352.8 182.5 L 554 182.5 L 554 120.2 C 554 53.8 500.1 0 433.7 0 Z M 336.7 193 L 184.7 139.6 L 184.7 357.8 L 117.1 382 L 117.1 458.2 L 385.7 458.2 L 385.7 330 L 336.7 330 L 336.7 193 Z M 352.8 313.8 L 554 313.8 L 554 198.7 L 352.8 198.7 L 352.8 313.8 Z" style="fill: rgb(255, 255, 255);"/>
</svg>
